src/view/frontend/web/svg/heroicons/solid/chat.svg

<svg viewBox="0 0 20 20" fill="currentColor" xmlns="http://www.w3.org/2000/svg">
<path fill-rule="evenodd" clip-rule="evenodd" d="M18 10C18 13.866 14.4183 17 10 17C8.50836 17 7.11208 16.6428 5.91677 16.0208L2 17L3.3383 13.8773C2.4928 12.7673 2 11.434 2 10C2 6.13401 5.58172 3 10 3C14.4183 3 18 6.13401 18 10ZM7 9H5V11H7V9ZM15 9H13V11H15V9ZM9 9H11V11H9V9Z" />
</svg>

<svg xmlns="http://www.w3.org/2000/svg" fill="currentColor" viewBox="0 0 20 20"><path fill-rule="evenodd" d="M18 10c0 3.866-3.582 7-8 7a8.841 8.841 0 0 1-4.083-.98L2 17l1.338-3.123C2.493 12.767 2 11.434 2 10c0-3.866 3.582-7 8-7s8 3.134 8 7ZM7 9H5v2h2V9Zm8 0h-2v2h2V9ZM9 9h2v2H9V9Z" clip-rule="evenodd"/></svg>
